!!!!SEGMENT: Ver3016-Quanto_sia_lieto_il_giorno.krn
!!!id: Ver3016
!!!AGN: Madrigal
!!!SCT: Slim (1972)
!!!voices: 4
!!!COM: Philippe Verdelot
!!!OTL: Quanto sia lieto il giorno
**kern	**kern	**kern	**kern
*part4	*part3	*part2	*part1
*staff4	*staff3	*staff2	*staff1
*I"Bassus	*I"Tenor	*I"Altus	*I"Superius
*I'B	*I'T	*I'A	*I'S
*clefF4	*clefGv2	*clefG2	*clefG2
*k[b-]	*k[b-]	*k[b-]	*k[b-]
*F:	*F:	*F:	*F:
*M2/1	*M2/1	*M2/1	*M2/1
*met(C|)	*met(C|)	*met(C|)	*met(C|)
=1	=1	=1	=1
0r	0r	1g	1r
.	.	2.b-y	1g
.	.	4a	.
=2	=2	=2	=2
1r	0r	2g	2b-y
.	.	2f	2a
1G	.	1g	2.b-y
.	.	.	4cc
=3	=3	=3	=3
2.B-y	1G	0d	2dd
.	.	.	2dd
4A	.	.	.
2G	2B-y	.	1r
2F	2A	.	.
=4	=4	=4	=4
1G	2.B-y	2r	2r
.	.	2d	2dd
.	4c	.	.
1D	2d	2f	2dd
.	2d	2f	2dd
=5	=5	=5	=5
1r	1r	2e	2cc
.	.	2f	2a
2r	2r	1g	1b-y
2G	2d	.	.
=6	=6	=6	=6
2d	2d	1f	1a
2d	2f	.	.
2c	2e	1r	1r
2A	2f	.	.
=7	=7	=7	=7
1B-y	1d	1r	1r
2A	2c	2r	2r
2D	2d	2f	2a
=8	=8	=8	=8
2G	2d	2g	2b-y
2G	2d	2g	2b-y
2F	2f	2a	2cc
2F	2f	2a	2cc
=9	=9	=9	=9
1.B-y	1f	1.b-y	1.dd
.	2.f	.	.
2F	.	2a	2cc
.	4e	.	.
=10	=10	=10	=10
2G	2d	2g	2b-y
2A	1c	2e	1a
2F	.	4f	.
.	.	4e	.
2G	2B-y	4d	[2g
.	.	4c	.
=11	=11	=11	=11
1D	1A	1d	2g]
.	.	.	2f#X
[1G	[1G	2d	1g
.	.	2g	.
=12	=12	=12	=12
1G]	1G]	2.b-y	2r
.	.	.	2g
.	.	4a	.
1r	1r	2g	2b-y
.	.	2f#i	2a
=13	=13	=13	=13
1G	1r	1g	2.b-y
.	.	.	4cc
2.B-y	1G	[1d	2dd
.	.	.	2dd
4A	.	.	.
=14	=14	=14	=14
2G	2B-y	1d]	1r
2F	2A	.	.
1G	2.B-y	2r	2r
.	.	2d	2d
.	4c	.	.
=15	=15	=15	=15
1D	2d	2f	2dd
.	2d	2f	2dd
1r	1r	2e	2cc
.	.	2f	2a
=16	=16	=16	=16
2r	2r	1g	1b-y
2G	2d	.	.
2d	2d	1f	1a
2d	2f	.	.
=17	=17	=17	=17
2c	2e	0r	0r
2A	2f	.	.
1B-y	1d	.	.
=18	=18	=18	=18
2A	2c	2r	2r
2D	2d	2f	2a
2G	2d	2g	2b-y
2G	2d	2g	2b-y
=19	=19	=19	=19
2F	2f	2a	2cc
2F	2f	2a	2cc
[1B-y	1f	[1b-y	[1dd
=20	=20	=20	=20
2B-]	2.f	2b-]	2dd]
2F	.	2a	2cc
.	4e	.	.
2G	2d	2g	2b-y
2A	[2c	2e	[2a
=21	=21	=21	=21
2F	2c]	4f	2a]
.	.	4e	.
2G	2B-y	4d	1g
.	.	4c	.
1D	1A	1d	.
.	.	.	2f#i
=22	=22	=22	=22
1G	1G	1d	1g
2r	2r	2r	2r
2D	2d	2f	2a
=23	=23	=23	=23
2F	2c	2f	2a
2F	2c	2f	2a
2F	2d	2f	2a
2F	2c	2f	2a
=24	=24	=24	=24
1G	1B-y	1d	1g
1D	1A	1d	1f
=25	=25	=25	=25
2r	2r	2r	2r
2D	2d	2f	2a
2D	2d	2f	2a
2D	2d	2f	2a
=26	=26	=26	=26
2G	2d	2g	2b-y
2G	2d	2g	2b-y
1F	1f	1a	1cc
=27	=27	=27	=27
1F	1c	1f	1a
2G	2B-y	2e	2g
2D	[2A	[2d	2f
=28	=28	=28	=28
1E	2A]	2d]	1g
.	2G	2c#i	.
1D	1A	1d	1f
=29	=29	=29	=29
1F	2r	1a	1cc
.	2A	.	.
2G	2B-y	2g	2b-y
2A	2c	2e	2a
=30	=30	=30	=30
2D	2d	2f	2a
2E-X	2B-y	4e	2g
.	.	4d	.
1F	1A	1c	2a
.	.	.	2a
=31	=31	=31	=31
1D	1A	1f	2r
.	.	.	2a
1r	1r	1r	1cc
=32	=32	=32	=32
2r	2r	2r	1a
2A	2c	2f	.
2G	2B-y	2e	1r
2F	2A	[2d	.
=33	=33	=33	=33
1E	1G	2d]	0r
.	.	2c#i	.
1D	1A	1d	.
=34	=34	=34	=34
2r	2r	2r	2r
2D	2f	2a	2dd
2A	2e	2a	2cc
2B-y	2d	2f	2dd
=35	=35	=35	=35
2G	2e	2g	2b-y
2A	2e	2e	2cc
2D	1d	2f	4dd
.	.	.	4cc
4G	.	[2g	4b-y
4F	.	.	4a
=36	=36	=36	=36
4E	1e	4g]	2g
4D	.	4f	.
2C	.	4e	4cc
.	.	4d	4b-y
4F	2.f	2c	4a
4E	.	.	4g
4D	.	[2f	2f
4C	4e	.	.
=37	=37	=37	=37
1BB-y	4d	4f]	4b-y
.	4c	4e	4a
.	4B-y	2d	4g
.	4A	.	4f
2C	1G	1c	4e
.	.	.	4f
2E-i	.	.	[2g
=38	=38	=38	=38
1D	1A	1d	2g]
.	.	.	2f#i
2G	4G	1d	2g
.	4A	.	.
2G	4B-y	.	2g
.	4c	.	.
=39	=39	=39	=39
2r	4d	2r	2r
.	4e	.	.
2D	2f	2a	2dd
2A	2e	2a	2cc
2B-y	2d	2f	2dd
=40	=40	=40	=40
2G	2e	2g	2b-y
2A	2e	2e	2cc
2D	1d	2f	4dd
.	.	.	4cc
4G	.	[2g	4b-y
4F	.	.	4a
=41	=41	=41	=41
4E	1e	4g]	2g
4D	.	4f	.
2C	.	4e	4cc
.	.	4d	4b-y
4F	2.f	2c	4a
4E	.	.	4g
4D	.	[2f	2f
4C	4e	.	.
=42	=42	=42	=42
1BB-y	4d	4f]	4b-y
.	4c	4e	4a
.	4B-y	2d	4g
.	4A	.	4f
2C	1G	1c	4e
.	.	.	4f
2E-i	.	.	[2g
=43	=43	=43	=43
1D	1A	1d	2g]
.	.	.	2f#i
2r	2.G	2.d	[1gl
[2G	.	.	.
.	4A	4c	.
=44	=44	=44	=44
2G]	2B-y	2d	0g_
1C	1c	1e	.
[2G	4B-y	4d	.
.	4A	4c	.
=45	=45	=45	=45
2G]	2B-y	2d	0g_
2C	1c	1e	.
1G	.	.	.
.	2B-y	2d	.
=46	=46	=46	=46
1C	1c	1e	0g_
[1Gl	[1BnXl	[1dl	.
=47	=47	=47	=47
00G]	00B]	00d]	00g]
==	==	==	==
*-	*-	*-	*-
!!!system-decoration: [*]
!!!RDF**kern: i = editorial accidental
!!!RDF**kern: l = terminal long
!!!ENC: Benjamin Ory
!!!END: 2021/2/9
!!!EED: Benjamin Ory
!!!EEV: 2021/04/29
!!!YEC: Copyright 2021 Benjamin Ory, All Rights Reserved
!!!ONB: Translated from MusicXML on 2021/04/29
